mapstyles/mapsforge_peruskartta/mml/SVJPerik.svg

<svg xmlns="http://www.w3.org/2000/svg" xml:space="preserve" width="393.75" height="962.5"><path d="M-360 720h2150m-380 0L710 4320 10 720m150 50 600 3200m50-400L310 720m150 0 400 2400m50-400L610 720m150 0 200 1700m150-400L910 820m150 0 100 700m100-350-50-350M710 4370v2350m-750-750 1500 1500m-1500 0 1500-1500M2160 6720c0 800.81-649.19 1450-1450 1450-800.813 0-1450-649.19-1450-1450S-90.812 5270 710 5270c800.81 0 1450 649.19 1450 1450" style="fill:none;stroke:#000;stroke-width:250;stroke-linecap:butt;stroke-linejoin:miter;stroke-miterlimit:10;stroke-opacity:1;stroke-dasharray:none" transform="matrix(.13 0 0 -.13 108.125 1036.875)"/></svg>

<?xml version="1.0" encoding="UTF-8" standalone="no"?>
<!-- Created with Inkscape (http://www.inkscape.org/) -->

<svg
   xmlns:dc="http://purl.org/dc/elements/1.1/"
   xmlns:cc="http://creativecommons.org/ns#"
   xmlns:rdf="http://www.w3.org/1999/02/22-rdf-syntax-ns#"
   xmlns:svg="http://www.w3.org/2000/svg"
   xmlns="http://www.w3.org/2000/svg"
   xmlns:sodipodi="http://sodipodi.sourceforge.net/DTD/sodipodi-0.dtd"
   xmlns:inkscape="http://www.inkscape.org/namespaces/inkscape"
   version="1.1"
   width="393.75"
   height="962.5"
   id="svg2"
   xml:space="preserve"
   inkscape:version="0.48.4 r9939"
   sodipodi:docname="SVJPerik.svg"><sodipodi:namedview
     pagecolor="#ffffff"
     bordercolor="#666666"
     borderopacity="1"
     objecttolerance="10"
     gridtolerance="10"
     guidetolerance="10"
     inkscape:pageopacity="0"
     inkscape:pageshadow="2"
     inkscape:window-width="1920"
     inkscape:window-height="1012"
     id="namedview9"
     showgrid="false"
     inkscape:zoom="0.23838384"
     inkscape:cx="382.5"
     inkscape:cy="495"
     inkscape:window-x="-8"
     inkscape:window-y="-8"
     inkscape:window-maximized="1"
     inkscape:current-layer="svg2" /><metadata
     id="metadata8"><rdf:RDF><cc:Work
         rdf:about=""><dc:format>image/svg+xml</dc:format><dc:type
           rdf:resource="http://purl.org/dc/dcmitype/StillImage" /></cc:Work></rdf:RDF></metadata><defs
     id="defs6" /><g
     transform="matrix(1.25,0,0,-1.25,108.125,1036.875)"
     id="g10"><g
       transform="scale(0.1,0.1)"
       id="g12"><path
         d="m -360,720 2150,0 M 1410,720 710,4320 10,720 m 150,50 600,3200 M 810,3570 310,720 m 150,0 400,2400 M 910,2720 610,720 m 150,0 200,1700 M 1110,2020 910,820 m 150,0 100,700 m 100,-350 -50,-350 m -500,3550 0,2350 M -40,5970 1460,7470 m -1500,0 1500,-1500"
         inkscape:connector-curvature="0"
         id="path14"
         style="fill:none;stroke:#000000;stroke-width:250;stroke-linecap:butt;stroke-linejoin:miter;stroke-miterlimit:10;stroke-opacity:1;stroke-dasharray:none" /><path
         d="m 2160,6720 c 0,800.81 -649.19,1450 -1450,1450 -800.8125,0 -1450,-649.19 -1450,-1450 0,-800.81 649.1875,-1450 1450,-1450 800.81,0 1450,649.19 1450,1450"
         inkscape:connector-curvature="0"
         id="path16"
         style="fill:none;stroke:#000000;stroke-width:250;stroke-linecap:butt;stroke-linejoin:miter;stroke-miterlimit:10;stroke-opacity:1;stroke-dasharray:none" /></g></g></svg>
